images/LDO.svg

<svg height="250" viewBox="0 0 250 250" width="250" xmlns="http://www.w3.org/2000/svg"><path d="m250 125c0 69.035156-55.964844 125-125 125s-125-55.964844-125-125 55.964844-125 125-125 125 55.964844 125 125zm0 0" fill="#f69988"/><g fill="#fff"><path d="m125.058594 36.621094 43.847656 68.472656-43.851562 25.496094-43.84375-25.496094zm-30.425782 65.234375 30.425782-47.511719 30.425781 47.511719-30.429687 17.691406zm0 0" fill-rule="evenodd"/><path d="m124.992188 145.640625-50.863282-29.578125-1.386718 2.167969c-15.667969 24.464843-12.167969 56.503906 8.410156 77.03125 24.214844 24.15625 63.480468 24.15625 87.695312 0 20.578125-20.527344 24.078125-52.566407 8.410156-77.03125l-1.386718-2.167969-50.875 29.578125zm0 0"/></g></svg>

<svg xmlns="http://www.w3.org/2000/svg" xmlns:xlink="http://www.w3.org/1999/xlink" width="250px" height="250px" viewBox="0 0 250 250" version="1.1">
<g id="surface1">
<path style=" stroke:none;fill-rule:nonzero;fill:rgb(96.470588%,60.000002%,53.333336%);fill-opacity:1;" d="M 250 125 C 250 194.035156 194.035156 250 125 250 C 55.964844 250 0 194.035156 0 125 C 0 55.964844 55.964844 0 125 0 C 194.035156 0 250 55.964844 250 125 Z M 250 125 "/>
<path style=" stroke:none;fill-rule:evenodd;fill:rgb(100%,100%,100%);fill-opacity:1;" d="M 125.058594 36.621094 L 168.90625 105.09375 L 125.054688 130.589844 L 81.210938 105.09375 Z M 94.632812 101.855469 L 125.058594 54.34375 L 155.484375 101.855469 L 125.054688 119.546875 Z M 94.632812 101.855469 "/>
<path style=" stroke:none;fill-rule:nonzero;fill:rgb(100%,100%,100%);fill-opacity:1;" d="M 124.992188 145.640625 L 74.128906 116.0625 L 72.742188 118.230469 C 57.074219 142.695312 60.574219 174.734375 81.152344 195.261719 C 105.367188 219.417969 144.632812 219.417969 168.847656 195.261719 C 189.425781 174.734375 192.925781 142.695312 177.257812 118.230469 L 175.871094 116.0625 L 124.996094 145.640625 Z M 124.992188 145.640625 "/>
</g>
</svg>
